X:1
T:Title
%%score { 1 | 2 }
L:1/8
Q:1/4=90
M:2/4
K:Eb
V:1 treble nm="Grand Piano"
V:2 bass 
V:1
 B2 G>B | [Ge]3 [GB] | [Ac][Ac] [GB][EG] | [EG]2 [DF]>[FA] | [B,EG][B,EG] [EGB][EGB] | %5
w: E.~E.~Meyer * *|||||
 [EAc][EAe] [EGB]>G | FF Bd |[M:9/16] ec/-c/[DB]-[DB]/[AB] |[M:2/4] [Ge][Ge] [Ge][EGB] | %9
w: ||||
 [EAc][EAe] [EGB]>[EGB] | [EAc]2 [Ad]>[Ad] | [Ge]4 | [Ge]>[Ge] [Ge][EGB] | [EAc][EAe] [EGB][B,EG] | %14
w: |||||
 [Ec][EAc] [EGB][B,EG] | [B,FA][B,EG] [B,EG][B,DF] | [B,EG][EGB] [Ge][Ge] | fe dc | B2 d>d | %19
w: |||||
 [Ge]4 |] %20
w: |
V:2
 B,2 G,>B, | [E,B,]3 [E,E] | [E,E][E,E] [E,E][E,B,] | [B,,B,]2 [B,,B,]>[B,,B,] | E,E, E,E, | %5
 A,,C, E,>[E,B,E] | [F,B,D][F,B,D] [F,DF][F,B,F] | %7
[M:9/16] [F,=A,F][F,A,E]/-[F,A,E]/[B,,F,]-[B,,F,]/[D,B,] |[M:2/4] [E,B,][E,B,] [E,B,]E, | %9
 A,,C, E,>E, | A,2 B,>[B,,B,] | [E,B,]4 | [E,B,]>[E,B,] [E,B,]E, | A,,C, E,E, | A,A, E,E, | %15
 D,E, E,B,, | E,E, [E,B,][E,B,] | [A,CA][A,CA] [A,EA][A,EA] | [B,EG]2 [B,A]>[B,A] | [E,B,]4 |] %20

